assets/icons/camera-off-24.svg

<svg width="24" height="24" viewBox="0 0 24 24" fill="none" xmlns="http://www.w3.org/2000/svg">
<path d="M8.82837 22C7.93746 22 7.49129 20.9229 8.12126 20.2929C8.3088 20.1054 8.56315 20 8.82837 20H19C20.1046 20 21 19.1046 21 18V9C21 8.85925 20.9855 8.72189 20.9578 8.58935C20.8565 8.10378 20.866 7.54813 21.2168 7.19738L21.2674 7.14677C21.6782 6.73598 22.3648 6.75947 22.6143 7.2841C22.8616 7.80409 23 8.38588 23 9V18C23 20.2091 21.2091 22 19 22H8.82837Z" fill="#F2F2F2"/>
<path d="M15.8083 12.6058C16.2559 12.1583 17 12.3671 17 13C17 15.7614 14.7614 18 12 18C11.3671 18 11.1583 17.2559 11.6058 16.8083L12.2141 16.2C12.3655 16.0486 12.5631 15.9551 12.7701 15.9002C13.8081 15.6253 14.6253 14.8081 14.9002 13.7701C14.9551 13.5631 15.0486 13.3655 15.2 13.2141L15.8083 12.6058Z" fill="#F2F2F2"/>
<path fill-rule="evenodd" clip-rule="evenodd" d="M10.5207 2C9.15433 2 7.98823 2.98783 7.76361 4.3356C7.69971 4.719 7.36799 5 6.97931 5L5 5C2.79086 5 1 6.79086 1 9L1 18C1 19.7348 2.10431 21.2116 3.64831 21.7659L21.2071 4.20711C21.5976 3.81658 21.5976 3.18342 21.2071 2.79289C20.8166 2.40237 20.1834 2.40237 19.7929 2.79289L17.5858 5H17.0207C16.632 5 16.3003 4.719 16.2364 4.3356C16.0118 2.98783 14.8457 2 13.4793 2L10.5207 2ZM15.8448 6.74095L14.1169 8.46891C13.474 8.16807 12.7566 8 12 8C9.23858 8 7 10.2386 7 13C7 13.7566 7.16807 14.474 7.4689 15.1168L3.39381 19.1919C3.14639 18.859 3 18.4466 3 18V9C3 7.89543 3.89543 7 5 7L6.97931 7C8.34567 7 9.51177 6.01217 9.73639 4.6644C9.80029 4.281 10.132 4 10.5207 4H13.4793C13.868 4 14.1997 4.281 14.2636 4.6644C14.4196 5.60012 15.0293 6.36234 15.8448 6.74095ZM12.5377 10.0481L9.04805 13.5377C9.01648 13.3632 9 13.1835 9 13C9 11.3431 10.3431 10 12 10C12.1836 10 12.3633 10.0165 12.5377 10.0481Z" fill="#F2F2F2"/>
</svg>

<svg xmlns="http://www.w3.org/2000/svg" width="24" height="24" viewBox="0 0 24 24"><path d="M8.828 22c-.89 0-1.337-1.077-.707-1.707A1 1 0 018.828 20H19a2 2 0 002-2V9c0-.14-.015-.278-.042-.41-.101-.486-.092-1.042.259-1.393l.05-.05c.411-.411 1.098-.388 1.347.137.248.52.386 1.102.386 1.716v9a4 4 0 01-4 4H8.828z"/><path d="M15.808 12.606C16.256 12.158 17 12.367 17 13a5 5 0 01-5 5c-.633 0-.842-.744-.394-1.192l.608-.608c.152-.151.35-.245.556-.3a3.005 3.005 0 002.13-2.13c.055-.207.149-.404.3-.556l.608-.608z"/><path fill-rule="evenodd" d="M10.52 2a2.795 2.795 0 00-2.756 2.336.795.795 0 01-.785.664H5a4 4 0 00-4 4v9a4.002 4.002 0 002.648 3.766l17.56-17.559a1 1 0 00-1.415-1.414L17.586 5h-.565a.795.795 0 01-.785-.664A2.795 2.795 0 0013.48 2h-2.958zm5.325 4.74l-1.728 1.73a5 5 0 00-6.648 6.648l-4.075 4.075A1.991 1.991 0 013 18V9a2 2 0 012-2h1.98a2.795 2.795 0 002.756-2.336.795.795 0 01.785-.664h2.958c.389 0 .72.281.785.664a2.795 2.795 0 001.58 2.077zm-3.307 3.308l-3.49 3.49a3 3 0 013.49-3.49z"/></svg>
